svgs/duotone/socks.svg

<svg xmlns="http://www.w3.org/2000/svg" viewBox="0 0 512 512"><!-- Font Awesome Pro 6.0.0-alpha2 by @fontawesome - https://fontawesome.com License - https://fontawesome.com/license (Commercial License) --><defs><style>.fa-secondary{opacity:.4}</style></defs><path d="M127.996 127.998H287.998V95.998H127.996V127.998ZM127.996 271.996L41.345 336.596C1.996 366.146 -12.526 420.994 12.125 463.645C29.445 493.613 61.453 512.049 96.066 511.994C116.814 512.004 137.004 505.266 153.586 492.795L175.447 476.404C145.597 420.994 161.906 350.545 214.648 310.996L287.998 255.996V159.998H127.996V271.996ZM159.996 0C142.324 0 127.996 14.326 127.996 32V64H287.998V32C288.062 21.361 290.814 10.91 295.998 1.619C293.388 0.92 290.838 0 287.998 0H159.996ZM319.998 64V95.998H512V64H319.998ZM319.998 159.998H512V127.998H319.998V159.998Z" class="fa-secondary"/><path d="M287.998 64H128V95.998H287.998V64ZM287.998 127.998H128V159.998H287.998V127.998ZM479.994 0H351.996C334.324 0 319.996 14.326 319.996 32V64H511.994V32C511.994 14.326 497.668 0 479.994 0ZM319.996 127.998H511.994V95.998H319.996V127.998ZM319.996 271.996L233.867 336.596C194.459 366.146 179.998 420.994 204.648 463.645C230.971 509.668 289.617 525.639 335.641 499.318C335.643 499.316 335.645 499.314 335.646 499.314C342.941 495.131 335.967 499.996 460.795 406.375C493.02 382.207 511.988 344.277 511.994 303.996V159.998H319.996V271.996Z" class="fa-primary"/></svg>

<svg xmlns="http://www.w3.org/2000/svg" viewBox="0 0 512 512"><!-- Font Awesome Pro 5.15.1 by @fontawesome - https://fontawesome.com License - https://fontawesome.com/license (Commercial License) --><defs><style>.fa-secondary{opacity:.4}</style></defs><path d="M160 0a32 32 0 0 0-32 32v32h160V32a63.12 63.12 0 0 1 8-30.38C293.39.92 290.84 0 288 0zm-32 272l-86.65 64.6C2 366.15-12.52 421 12.13 463.65A96.77 96.77 0 0 0 96.07 512a95.62 95.62 0 0 0 57.52-19.2l21.86-16.39C145.6 421 161.91 350.55 214.65 311L288 256v-96H128zm0-144h160V96H128zm192-64v32h192V64zm0 96h192v-32H320z" class="fa-secondary"/><path d="M288 64H128v32h160zm0 64H128v32h160zm32 144l-86.13 64.6C194.46 366.15 180 421 204.65 463.65a96 96 0 0 0 131 35.67 98 98 0 0 0 9.95-6.54l115.2-86.4A128 128 0 0 0 512 304V160H320zm0-144h192V96H320zM480 0H352a32 32 0 0 0-32 32v32h192V32a32 32 0 0 0-32-32z" class="fa-primary"/></svg>
